X: 5
T: Kissed Yestere'en
P: piffero primo b0069
O: Fifer's Delight
%R: jig
F: http://ancients.sudburymuster.org/mus/ssp/pdf/draft111F.pdf
Z: 2019 John Chambers <jc:trillian.mit.edu>
M: 6/8
L: 1/8
K: Am
E |\
ABA ABd | e<gB A2c | BAB G/G/GG | BAB GAB |\
cBc dcd | ede a2g | edc Bcd | e2A A2 :|
|: ^g |\
a^ga ABA | a^ga A2^f | g^fg G/G/GG | BAB GAB |\
cBc dcd | ede a2g | edc Bcd | e2A A2 :|

%%center (drum bridge, Barrack Hill, 4 bars)


